Carto/POI/SVG/public-toilet_solid_24px.svg

<svg width="24" height="24" viewBox="0 0 24 24" fill="none" xmlns="http://www.w3.org/2000/svg">
<path d="M21 15H20.2L20.51 22H18.51L18 15H17L16.5 22H14.5L14.79 15H14V8.5C14 7.5 14.56 7 15.32 7H19.69C20.44 7 21 7.5 21 8.5V15ZM10 8.5C10 8.10218 9.84196 7.72064 9.56066 7.43934C9.27936 7.15804 8.89782 7 8.5 7C7.72 7 7.57 7.5 6.5 7.5C5.43 7.5 5.25 7 4.5 7C4.10218 7 3.72064 7.15804 3.43934 7.43934C3.15804 7.72064 3 8.10218 3 8.5V9.5L5 10.5L2 19H5L5.5 22H7.5L8 19H11L8 10.5L10 9.5V8.5ZM17 6H18C18.2652 6 18.5196 5.89464 18.7071 5.70711C18.8946 5.51957 19 5.26522 19 5V3C19 2.73478 18.8946 2.48043 18.7071 2.29289C18.5196 2.10536 18.2652 2 18 2H17C16.7348 2 16.4804 2.10536 16.2929 2.29289C16.1054 2.48043 16 2.73478 16 3V5C16 5.26522 16.1054 5.51957 16.2929 5.70711C16.4804 5.89464 16.7348 6 17 6ZM6 6H7C7.26522 6 7.51957 5.89464 7.70711 5.70711C7.89464 5.51957 8 5.26522 8 5V3C8 2.73478 7.89464 2.48043 7.70711 2.29289C7.51957 2.10536 7.26522 2 7 2H6C5.73478 2 5.48043 2.10536 5.29289 2.29289C5.10536 2.48043 5 2.73478 5 3V5C5 5.26522 5.10536 5.51957 5.29289 5.70711C5.48043 5.89464 5.73478 6 6 6Z" fill="#0F1621"/>
</svg>

<svg xmlns="http://www.w3.org/2000/svg" width="24" height="24" viewBox="0 0 24 24"><rect width="24" height="24" style="fill:none"/><path d="M21,15h-.8l.31,7h-2L18,15H17l-.5,7h-2l.29-7H14V8.5c0-1,.56-1.5,1.32-1.5h4.37C20.44,7,21,7.5,21,8.5ZM10,8.5A1.5,1.5,0,0,0,8.5,7h0c-.78,0-.93.5-2,.5S5.25,7,4.5,7h0A1.5,1.5,0,0,0,3,8.5v1l2,1L2,19H5l.5,3h2L8,19h3L8,10.5l2-1ZM17,6h1a1,1,0,0,0,1-1V3a1,1,0,0,0-1-1H17a1,1,0,0,0-1,1V5A1,1,0,0,0,17,6ZM6,6H7A1,1,0,0,0,8,5V3A1,1,0,0,0,7,2H6A1,1,0,0,0,5,3V5A1,1,0,0,0,6,6Z"/></svg>
